public/images/socials/3.svg

<svg width="62" height="62" viewBox="0 0 62 62" fill="none" xmlns="http://www.w3.org/2000/svg">
<path d="M11.4 1H1V12.3043" stroke="white"/>
<path d="M61 12.3043L61 1L50.6 1" stroke="white"/>
<path d="M50.6 61L61 61L61 49.6957" stroke="white"/>
<path d="M1 49.6957L1 61L11.4 61" stroke="white"/>
<path fill-rule="evenodd" clip-rule="evenodd" d="M39.82 21.1368C40.1056 21.0157 40.4181 20.9739 40.7252 21.0158C41.0322 21.0578 41.3224 21.1819 41.5657 21.3752C41.809 21.5686 41.9964 21.8242 42.1085 22.1154C42.2205 22.4065 42.2531 22.7227 42.2028 23.0308L39.582 39.0553C39.3277 40.601 37.6452 41.4875 36.2389 40.7175C35.0625 40.0734 33.3152 39.0809 31.7436 38.0454C30.9578 37.5271 28.5508 35.8672 28.8466 34.6861C29.1008 33.6762 33.1454 29.8812 35.4565 27.6249C36.3637 26.7385 35.95 26.2271 34.8787 27.0425C32.2174 29.0669 27.9475 32.1456 26.5354 33.0122C25.2897 33.7763 24.6403 33.9068 23.8637 33.7763C22.447 33.5387 21.1331 33.1706 20.0607 32.7222C18.6116 32.1165 18.6821 30.1083 20.0595 29.5236L39.82 21.1368Z" fill="white"/>

<defs>
<linearGradient id="paint0_linear_33_152" x1="0.572603" y1="5.79304" x2="11.9133" y2="5.84691" gradientUnits="userSpaceOnUse">
<stop stop-color="#56C0E5"/>
<stop offset="0.494791" stop-color="#B977E6"/>
<stop offset="1" stop-color="#E55C5E"/>
</linearGradient>
<linearGradient id="paint1_linear_33_152" x1="56.5904" y1="0.535438" x2="56.5212" y2="12.8621" gradientUnits="userSpaceOnUse">
<stop stop-color="#56C0E5"/>
<stop offset="0.494791" stop-color="#B977E6"/>
<stop offset="1" stop-color="#E55C5E"/>
</linearGradient>
<linearGradient id="paint2_linear_33_152" x1="61.4274" y1="56.207" x2="50.0867" y2="56.1531" gradientUnits="userSpaceOnUse">
<stop stop-color="#56C0E5"/>
<stop offset="0.494791" stop-color="#B977E6"/>
<stop offset="1" stop-color="#E55C5E"/>
</linearGradient>
<linearGradient id="paint3_linear_33_152" x1="5.4096" y1="61.4646" x2="5.47878" y2="49.1379" gradientUnits="userSpaceOnUse">
<stop stop-color="#56C0E5"/>
<stop offset="0.494791" stop-color="#B977E6"/>
<stop offset="1" stop-color="#E55C5E"/>
</linearGradient>
<linearGradient id="paint4_linear_33_152" x1="28.8174" y1="28.72" x2="33.6639" y2="28.7237" gradientUnits="userSpaceOnUse">
<stop stop-color="#56C0E5"/>
<stop offset="0.494791" stop-color="#B977E6"/>
<stop offset="1" stop-color="#E55C5E"/>
</linearGradient>
<linearGradient id="paint5_linear_33_152" x1="28.8174" y1="28.72" x2="33.6639" y2="28.7237" gradientUnits="userSpaceOnUse">
<stop stop-color="#56C0E5"/>
<stop offset="0.494791" stop-color="#B977E6"/>
<stop offset="1" stop-color="#E55C5E"/>
</linearGradient>
</defs>


</svg>

<svg width="62" height="62" viewBox="0 0 62 62" fill="none" xmlns="http://www.w3.org/2000/svg"><path d="M11.4 1H1v11.304m60 0V1H50.6m0 60H61V49.696m-60 0V61h10.4" stroke="#fff"/><path fill-rule="evenodd" clip-rule="evenodd" d="M39.82 21.137a1.722 1.722 0 011.746.238 1.747 1.747 0 01.637 1.656l-2.621 16.024c-.254 1.546-1.937 2.432-3.343 1.663-1.176-.645-2.924-1.637-4.495-2.673-.786-.518-3.193-2.178-2.897-3.359.254-1.01 4.298-4.805 6.61-7.061.907-.887.493-1.398-.578-.582-2.662 2.024-6.931 5.103-8.344 5.97-1.245.763-1.895.894-2.671.763-1.417-.237-2.73-.605-3.803-1.054-1.45-.605-1.379-2.614-.002-3.198l19.761-8.387z" fill="#fff"/><defs><linearGradient id="paint0_linear_33_152" x1=".573" y1="5.793" x2="11.913" y2="5.847" gradientUnits="userSpaceOnUse"><stop stop-color="#56C0E5"/><stop offset=".495" stop-color="#B977E6"/><stop offset="1" stop-color="#E55C5E"/></linearGradient><linearGradient id="paint1_linear_33_152" x1="56.59" y1=".535" x2="56.521" y2="12.862" gradientUnits="userSpaceOnUse"><stop stop-color="#56C0E5"/><stop offset=".495" stop-color="#B977E6"/><stop offset="1" stop-color="#E55C5E"/></linearGradient><linearGradient id="paint2_linear_33_152" x1="61.427" y1="56.207" x2="50.087" y2="56.153" gradientUnits="userSpaceOnUse"><stop stop-color="#56C0E5"/><stop offset=".495" stop-color="#B977E6"/><stop offset="1" stop-color="#E55C5E"/></linearGradient><linearGradient id="paint3_linear_33_152" x1="5.41" y1="61.465" x2="5.479" y2="49.138" gradientUnits="userSpaceOnUse"><stop stop-color="#56C0E5"/><stop offset=".495" stop-color="#B977E6"/><stop offset="1" stop-color="#E55C5E"/></linearGradient><linearGradient id="paint4_linear_33_152" x1="28.817" y1="28.72" x2="33.664" y2="28.724" gradientUnits="userSpaceOnUse"><stop stop-color="#56C0E5"/><stop offset=".495" stop-color="#B977E6"/><stop offset="1" stop-color="#E55C5E"/></linearGradient><linearGradient id="paint5_linear_33_152" x1="28.817" y1="28.72" x2="33.664" y2="28.724" gradientUnits="userSpaceOnUse"><stop stop-color="#56C0E5"/><stop offset=".495" stop-color="#B977E6"/><stop offset="1" stop-color="#E55C5E"/></linearGradient></defs></svg>
